X: 11026
T: Drying Out
R: reel
M: 4/4
K: Dmajor
D2 D2 E|:F/E/D/FG Adcd|G=ccc BGGF|F/E/D/FG Adcd|DDE/F/G =cGAG|
F/E/D/FG Adcd|G=ccc BGG=F|~=F3 G ~_B3 F|GEA,B, =CDED:|
D/E/F GA ~d2 Ad|dcAd fddA|D/E/F GA ~=c2 Gc|=cBGc eccA|
D/E/F GF ~D2 FA|~d2 Ad gdfd|~=c2 Gc =fcec|=cBGc AddA:|

